!!!COM: Corelli, Arcangelo
!!!OTL: 
!!!ONM: Opus 5, No. 9
!!!OMV: 4
!!!CDT: 1653/2/17/-1713/1/8/
!!!OCY: Italia
**kern	**kern
*clefC	*clefG
*k[f#c#]	*k[f#c#]
*D:	*D:
*M2/2	*M2/2
=1	=1
8A	4ee
8B	.
8c#	4aa
8d	.
8e	4b
8E	.
8G#	4gg#
8E	.
=2	=2
8F#	4a
8G#	.
8A	4ff#
8B	.
8c#	4g#
8C#	.
8E	4ee
8C#	.
=3	=3
8D	4f#
8E	.
8F#	4dd
8D	.
8G#	4e
8E	.
8F#	4a
8C#	.
=4	=4
8D	4B
8BB	.
8E	4g#
8EE	.
2AA	2A
=5	=5
8A	4ee
8B	.
8c#	4aa
8d	.
8e	4b
8E	.
8G#	4gg#
8E	.
=6	=6
8F#	4a
8E	.
8D#	4ff#
8BB	.
8E	4g#
8F#	.
8G#	4bb
8E	.
=7	=7
8A	4cc#
8B	.
8c#	4aa
8A	.
8d#	4b
8B	.
8c#	4ee
8G#	.
=8	=8
8A	4f#
8F#	.
8B	4dd#
8BB	.
2E	2e
=9	=9
8C#	4ee
8BB	.
8C#	4c#
8AA	.
8D	4ff#
8C#	.
8D	4d
8BB	.
=10	=10
8E	4gg#
8D	.
8E	4e
8C#	.
8F#	4aa
8F#	.
8E	4f#
8D	.
=11	=11
8C#	4ee
8BB	.
8C#	4c#
8AA	.
8D	4ff#
8C#	.
8D	4d
8BB	.
=12	=12
8E	4gg#
8D	.
8E	4e
8C#	.
8F#	4aa
8F#	.
8E	4f#
8D	.
=13	=13
8C#	4ee
8c#	.
8B	8dd
8A	8cc#
8G#	4b
8E	.
8A	8cc#
8C#	8dd
=14	=14
8D	2b
8BB	.
8E	.
8EE	.
2AA	2a
=15	=15
8C#	4ee
8BB	.
8C#	4c#
8AA	.
8D	4ff#
8C#	.
8D	4d
8BB	.
=16	=16
8E	4gg#
8D	.
8E	4e
8C#	.
8F#	4aa
8F#	.
8E	4f#
8D	.
=17	=17
8C#	4ee
8BB	.
8C#	4c#
8AA	.
8D	4ff#
8C#	.
8D	4d
8BB	.
=18	=18
8E	4gg#
8D	.
8E	4e
8C#	.
8F#	4aa
8F#	.
8E	4f#
8D	.
=19	=19
8C#	4ee
8c#	.
8B	8dd
8A	8cc#
8G#	4b
8E	.
8A	8cc#
8C#	8dd
=20	=20
8D	2b
8BB	.
8E	.
8EE	.
2AA	2a
=21	=21
8E#	4g#
8C#	.
8E#	4cc#
8C#	.
8F#	4a
8C#	.
8F#	4f#
8C#	.
=22	=22
8E#	4g#
8C#	.
8E#	4cc#
8C#	.
2F#	2a
=23	=23
8A#	4cc#
8F#	.
8A#	4ff#
8F#	.
8B	4dd
8F#	.
8B	4b
8F#	.
=24	=24
8A#	4cc#
8F#	.
8A#	4ff#
8F#	.
2B	2dd
=25	=25
8B#	4dd#
8G#	.
8B#	4gg#
8G#	.
8c#	4ee
8G#	.
8c#	4cc#
8G#	.
=26	=26
8B#	4dd#
8G#	.
8B#	4gg#
8G#	.
2c#	2ee
=27	=27
8c#	4aa
8B	.
8c#	4cc#
8d	.
8e	4b
8E	.
8G#	4gg#
8E	.
=28	=28
8F#	4a
8E	.
8D#	4ff#
8BB	.
8E	4g#
8F#	.
8G#	4ee
8E	.
=29	=29
8B	4f#
8c#	.
8d#	4dd#
8B#	.
8c#	4e
8d#	.
8e	4cc#
8E	.
=30	=30
8F#	4d#
8D#	.
8G#	4b#
8GG#	.
2C#	2c#
=31	=31
8c#	4aa
8B	.
8c#	4cc#
8d#	.
8e	4b
8E	.
8G#	4gg#
8E	.
=32	=32
8F#	4a
8E	.
8D#	4ff#
8BB	.
8E	4g#
8F#	.
8G#	4ee
8E	.
=33	=33
8B	4f#
8c#	.
8d#	4dd#
8B#	.
8c#	4e
8d#	.
8e	4cc#
8E	.
=34	=34
8F#	4d#
8D#	.
8G#	4b#
8GG#	.
2C#	2c#
=35	=35
8A	4ee
8B	.
8c#	4aa
8d	.
8e	4b
8E	.
8G#	4gg#
8E	.
=36	=36
8F#	4a
8G#	.
8A	4ff#
8B	.
8c#	4g#
8C#	.
8E	4ee
8C#	.
=37	=37
8D	4f#
8E	.
8F#	4dd
8D	.
8G#	4e
8E	.
8F#	4a
8C#	.
=38	=38
8D	4B
8BB	.
8E	4g#
8EE	.
2AA	2A
=39	=39
8A	4ee
8B	.
8c#	4aa
8d	.
8e	4b
8E	.
8G#	4gg#
8E	.
=40	=40
8F#	4a
8E	.
8D#	4ff#
8BB	.
8E	4g#
8F#	.
8G#	4bb
8E	.
=41	=41
8A	4cc#
8B	.
8c#	4aa
8A	.
8d#	4b
8B	.
8c#	4ee
8G#	.
=42	=42
8A	4f#
8F#	.
8B	4dd#
8BB	.
2E	2e
=43	=43
8C#	4ee
8BB	.
8C#	4c#
8AA	.
8D	4ff#
8C#	.
8D	4d
8BB	.
=44	=44
8E	4gg#
8D	.
8E	4e
8C#	.
8F#	4aa
8F#	.
8E	4f#
8D	.
=45	=45
8C#	4ee
8BB	.
8C#	4c#
8AA	.
8D	4ff#
8C#	.
8D	4d
8BB	.
=46	=46
8E	4gg#
8D	.
8E	4e
8C#	.
8F#	4aa
8F#	.
8E	4f#
8D	.
=47	=47
8C#	4ee
8c#	.
8B	8dd
8A	8cc#
8G#	4b
8E	.
8A	8cc#
8C#	8dd
=48	=48
8D	2b
8BB	.
8E	.
8EE	.
2AA	2a
=49	=49
8C#	4ee
8BB	.
8C#	4c#
8AA	.
8D	4ff#
8C#	.
8D	4d
8BB	.
=50	=50
8E	4gg#
8D	.
8E	4e
8C#	.
8F#	4aa
8F#	.
8E	4f#
8D	.
=51	=51
8C#	4ee
8BB	.
8C#	4c#
8AA	.
8D	4ff#
8C#	.
8D	4d
8BB	.
=52	=52
8E	4gg#
8D	.
8E	4e
8C#	.
8F#	4aa
8F#	.
8E	4f#
8D	.
=53	=53
8C#	4ee
8c#	.
8B	8dd
8A	8cc#
8G#	4b
8E	.
8A	8cc#
8C#	8dd
=54	=54
8D	2b
8BB	.
8E	.
8EE	.
2AA	2a
==	==
*-	*-
!!!RWG: This file only contains pitch and duration data.
!!!RWG: Transposing instruments are not transposed.
!!!RWG: Durations of rests and tied notes may be interpreted.
!!!RWG: Key is interpreted using the Humdrum key tool.
!!!SCA: 
!!!YOR: 
!!!AGN: violin
!!!AFT: stage1
!!!ENC: F. Bennion
!!!END: 1997/04/15
!!!AST: baroque
!!!YEC: Copyright 1994, Center for Computer Assisted Research in the Humanities
!!!YEM: Rights to all derivative electronic formats reserved.
!!!YEM: Refer to licensing agreement for further details.
!!!YEN: United States of America
!!!EED: W.B. Hewlett
!!!KEY: 812419612
!!!EMD: Converted from MuseData to Humdrum Aug 9, 1999, by Bret Aarden using muse2kern.
!!!VTS: 1087200648
